icons/video-16.svg

<svg xmlns="http://www.w3.org/2000/svg" width="16" height="16" viewBox="0 0 16 16"><path fill-rule="evenodd" d="M1.75 3.5a.25.25 0 00-.25.25v8.5c0 .138.112.25.25.25h12.5a.25.25 0 00.25-.25v-8.5a.25.25 0 00-.25-.25H1.75zM0 3.75C0 2.784.784 2 1.75 2h12.5c.966 0 1.75.784 1.75 1.75v8.5A1.75 1.75 0 0114.25 14H1.75A1.75 1.75 0 010 12.25v-8.5z"/><path d="M6 10.559V5.442a.25.25 0 01.379-.215l4.264 2.559a.25.25 0 010 .428l-4.264 2.559A.25.25 0 016 10.559z"/></svg>

<svg xmlns="http://www.w3.org/2000/svg" width="16" height="16" viewBox="0 0 16 16">
  <defs/>
  <path d="M0,3.75 C0,2.784 0.784,2 1.75,2 L14.25,2 C15.216,2 16,2.784 16,3.75 L16,12.25 C16,13.216 15.216,14 14.25,14 L1.75,14 C0.784,14 0,13.216 0,12.25 Z M1.75,3.5 C1.612,3.5 1.5,3.612 1.5,3.75 L1.5,12.25 C1.5,12.388 1.612,12.5 1.75,12.5 L14.25,12.5 C14.388,12.5 14.5,12.388 14.5,12.25 L14.5,3.75 C14.5,3.612 14.388,3.5 14.25,3.5 Z"/>
  <path d="M6,10.559 L6,5.442 A0.25 0.25 0 0 1 6.379,5.227 L10.643,7.786 A0.25 0.25 0 0 1 10.643,8.214 L6.379,10.773 A0.25 0.25 0 0 1 6,10.559 Z"/>
</svg>
